remix/Map/steering-2-line.svg

<svg viewBox="0 0 24 24" fill="currentColor" xmlns="http://www.w3.org/2000/svg"><path d="M12 2C17.5228 2 22 6.47715 22 12C22 17.5228 17.5228 22 12 22C6.47715 22 2 17.5228 2 12C2 6.47715 6.47715 2 12 2ZM8 13L4.06201 13.001C4.51365 16.6192 7.38163 19.4869 11 19.9381V16C9.34315 16 8 14.6569 8 13ZM19.938 13.001L16 13C16 14.6569 14.6569 16 13 16L13.001 19.938C16.6189 19.4864 19.4864 16.6189 19.938 13.001ZM14 12H10V13C10 13.5523 10.4477 14 11 14H13C13.5523 14 14 13.5523 14 13V12ZM12 4C7.92037 4 4.55396 7.05371 4.06189 11H8C8 10.4477 8.44772 10 9 10H15C15.5523 10 16 10.4477 16 11H19.9381C19.446 7.05371 16.0796 4 12 4Z"/></svg>

<svg viewBox="0 0 24 24" xmlns="http://www.w3.org/2000/svg"><path fill="none" d="M0 0h24v24H0Z"/><path d="M12 2c5.523 0 10 4.477 10 10s-4.477 10-10 10C6.477 22 2 17.523 2 12 2 6.477 6.477 2 12 2ZM8 13l-3.94 0h0c.45 3.62 3.31 6.47 6.93 6.93v-3.94 0c-1.66 0-3-1.35-3-3Zm11.93 0l-3.94-.01v0c0 1.65-1.35 3-3 3l0 3.93 -.001-.001c3.62-.46 6.47-3.32 6.93-6.94Zm-5.94-1.01h-4v1 0c0 .55.44 1 1 1h2v0c.55 0 1-.45 1-1v-1Zm-2-8V3.98c-4.04 0-7.44 2.99-7.94 7h3.93v0c0-.56.44-1 1-1h6v0c.55 0 1 .44 1 1h3.93 -.001c-.51-4.01-3.91-7-7.94-7Z"/></svg>
